!!!COM:	Bach, Johann Sebastian
!!!CDT:	1685/02/21/-1750/07/28/
!!!OTL@@DE:	Herr, ich habe mi&szlig;gehandelt
!!!SCT:	BWV 331
!!!PC#:	287
!!!AGN:	chorale
**kern	**kern	**kern	**kern
*ICvox	*ICvox	*ICvox	*ICvox
*Ibass	*Itenor	*Ialto	*Isoprn
*I"Bass	*I"Tenor	*I"Alto	*I"Soprano
*>[A,A,B]	*>[A,A,B]	*>[A,A,B]	*>[A,A,B]
*>norep[A,B]	*>norep[A,B]	*>norep[A,B]	*>norep[A,B]
*>A	*>A	*>A	*>A
*	*oclefC4	*oclefC3	*oclefC1
*clefF4	*clefGv2	*clefG2	*clefG2
*k[]	*k[]	*k[]	*k[]
*a:	*a:	*a:	*a:
*M4/4	*M4/4	*M4/4	*M4/4
*met(c)	*met(c)	*met(c)	*met(c)
*MM100	*MM100	*MM100	*MM100
=1-	=1-	=1-	=1-
4AA	4c	4e	4a
8AL	4c	4e	4e
8GJ	.	.	.
4F#	4c	4e	4a
4F	8BL	4d	4b
.	8AJ	.	.
=2	=2	=2	=2
4E	4G#	4e	4cc
8FL	4A	4a	4dd
8DJ	.	.	.
2E	4.e	4a	2b
.	.	4g#	.
.	8d	.	.
=3	=3	=3	=3
2AA;	2c;	2e;	2a;
4A	4e	4a	4cc
4B	4d	4g#	4b
=4	=4	=4	=4
4c	4e	4a	4a
4G#	8eL	4e	4b
.	8dJ	.	.
8AL	8cL	4e	4cc
8GJ	8BJ	.	.
4F	4A	4a	4dd
=5	=5	=5	=5
1E;	1B;	1g#;	1ee;
=6:|!	=6:|!	=6:|!	=6:|!
*>B	*>B	*>B	*>B
4A	4c	4a	4ee
8GnXL	4d	4a	4ff
8FJ	.	.	.
4E	8dL	4g	4gg
.	8cJ	.	.
8FL	4c	4a	4cc
8EJ	.	.	.
=7	=7	=7	=7
4D	8cL	8aL	4ff
.	8BJ	8a-J	.
8EL	4c	4g	4ee
8FJ	.	.	.
2G	4c	4.g	2dd
.	4B	.	.
.	.	8f	.
=8	=8	=8	=8
2C;	2G;	2e;	2cc;
8GL	4B	4g	4dd
8FJ	.	.	.
8EL	4B	4g	4dd
8DJ	.	.	.
=9	=9	=9	=9
8CL	8cL	4g	4ee
8EJ	8GJ	.	.
8DL	4d	8f#L	4a
8CJ	.	8eJ	.
4BB	4d	8f#L	4dd
.	.	8g#J	.
4AA	4e	4a	4cc
=10	=10	=10	=10
2E	4.e	4a	2b
.	.	4g#	.
.	8d	.	.
2AA;	2c#;	2e;	2a;
==	==	==	==
*-	*-	*-	*-
!!!YOR1: 371 vierstimmige Choralges&auml;nge von Johann Sebastian Bach, 
!!!YOR2: 4th ed. by Alfred D&ouml;rffel (Leipzig: Breitkopf und H&auml;rtel, 
!!!YOR2: c.1875). 178 pp. Plate "V.A.10".  reprint: J.S. Bach, 371 Four-Part 
!!!YOR4: Chorales (New York: Associated Music Publishers, Inc., c.1940).
!!!SMS: B&H, 4th ed, Alfred D&ouml;rffel, c.1875, plate V.A.10
!!!EED:  Craig Stuart Sapp
!!!EEV:  2009/05/22
